X:1440
T:The Second Wedding
M:C|
L:1/8
N:"collected by J. O'Neill"
B:O'Neill's 1440
Z:"Transcribed by Bob Safranek, rjs@gsp.org"
K:G
d"   Sign"c|BGAG BGAF|G2 Bd gedc|BGAG    BGAG|EAAG ABcA|
BGAG BGAF|G2 Bd gedc|BGAG    BGAG|FDEF G2||
Bd|gfge fgaf|g2 bg afdf|gfge    fgaf|bgef g2 Bd|
gfge fgaf|g2 bg afdf|agfge gfefd|egfa ged"   Sign"c|]
